X:107
M:4/4
L:1/4
K:C
z c B A | G A F G | E/D/ C2 E | D G ^F c | B A G2 | z c B A | G A F G | E/D/ C2 E | D G ^F c | B A G2 | z G c c | A A d d | B3 !sintro!c | F E D c | c B !fermata!c2 !eintro!|]
